X:33
T:Grant Lodge
R:strathspey
C:William Marshall
S:1822 Collection p40 (dotted rhythms Kerrs)
B:Athole,Kerrs
Z:Paul Stewart Cranford (P.S.C.), <http://www.cranfordpub.com>
M:C
L:1/8
Q:266
K:G
g|G>DG<B A>GA<B|G<GG>B d2 d>g|G>DG<B A>GA<B|e<ee>d e2 e:|
||f|g>ab<g d>ed<B|g>ab<g e2 e>f|g>ab<g d>ed<B|A<AB>d e2 e>f|
g>ab<g d>ed<B|g>ab<g e2 ef|g<bfa e>fg<e| d<BB>G A2 A|]

